sass/icons/sidebar/indices/ic-indices-normal.svg

<?xml version="1.0" encoding="UTF-8"?>
<svg width="16px" height="16px" viewBox="0 0 16 16" version="1.1" xmlns="http://www.w3.org/2000/svg" xmlns:xlink="http://www.w3.org/1999/xlink">
    <!-- Generator: Sketch 49 (51002) - http://www.bohemiancoding.com/sketch -->
    <title>icons/system/light/sidebar/indices/ic-indices-normal</title>
    <desc>Created with Sketch.</desc>
    <defs>
        <circle id="path-1" cx="8" cy="8" r="8"></circle>
    </defs>
    <g id="icons/system/light/sidebar/indices/ic-indices-normal" stroke="none" stroke-width="1" fill="none" fill-rule="evenodd">
        <g id="Group-Copy-2">
            <g id="Oval">
                <use fill="#FFFFFF" fill-rule="evenodd" xlink:href="#path-1"></use>
                <circle stroke="#B0B3BF" stroke-width="1" cx="8" cy="8" r="7.5"></circle>
            </g>
            <path d="M13.8114108,4.50462443 C13.3079131,4.5537146 13.0570539,4.05917663 12.6051514,4.05917663 C12.5731268,4.05917663 12.5411023,3.99917754 12.5090777,3.96645076 C12.3880959,3.84281627 12.2760099,3.70827285 12.153249,3.6028199 C11.893494,3.37009615 11.5501193,3.33373307 11.2352109,3.25555243 C11.1734124,3.25256009 11.1128675,3.27405264 11.0661922,3.31555152 C10.7281549,3.57736574 10.7103635,3.99554123 10.6089523,4.36462655 C10.59294,4.42098933 10.6552101,4.52098782 10.7085844,4.57371429 C10.8076299,4.65715563 10.9129216,4.73253677 11.0234928,4.79916542 C10.9541062,4.85007375 10.8953944,4.89916391 10.8455784,4.94279961 C10.6145283,5.13314559 10.4391204,5.38473012 10.3385225,5.67006133 C10.302468,5.77255271 10.2768319,5.87856424 10.2620193,5.98642018 C10.2499736,6.10293867 10.2129167,6.21530539 10.1534916,6.3155061 C10.0760993,6.43236884 10.0894637,6.58867083 10.1855162,6.69004589 L10.2033076,6.74640867 C10.2313704,6.83826529 10.3020678,6.90999628 10.3921526,6.93801455 C10.4822373,6.96603283 10.5800514,6.94671247 10.6534309,6.88640655 C10.8134132,6.68689 11.01946,6.57783369 11.2414711,6.56465111 C11.4634822,6.55146854 11.6805019,6.635404 11.8383405,6.79549884 C12.0678501,7.02094997 12.2333104,7.36639929 12.6407343,7.31185466 C12.6674215,7.31185466 12.7012252,7.34639959 12.7279123,7.37185375 L13.3986495,8.00275329 C13.2869425,8.06816329 13.1673088,8.1182886 13.0428208,8.15184194 C12.8364401,8.16820533 12.6282803,8.15184194 12.4218996,8.15184194 C12.2697475,8.17034512 12.1188355,8.1982749 11.9699972,8.23547704 L11.9148437,8.32093029 C11.7582791,8.13911486 11.6070519,7.95729943 11.4451498,7.79002924 C11.212082,7.54457841 11.0057013,7.53730579 10.7833084,7.79002924 C10.6699421,7.92121578 10.5018601,7.98884077 10.3314059,7.97184467 C10.1819579,7.97184467 9.97557721,7.93366343 9.89195746,8.01729852 C9.63042336,8.3045669 9.18030003,8.46456448 9.20698718,8.97364768 C9.20698718,9.03546493 9.13048401,9.11728187 9.06999313,9.15546311 C8.91407192,9.274222 8.83642116,9.47225433 8.8689499,9.66818262 C8.88251111,9.81512709 8.88251111,9.96304965 8.8689499,10.1099941 C8.83717865,10.3160769 8.91512228,10.5238665 9.07355141,10.6554404 C9.14023519,10.7462094 9.18586262,10.8512776 9.20698718,10.9627085 C9.23011605,11.0299802 9.21766204,11.1136153 9.25146577,11.1699781 C9.48097529,11.5572449 10.109013,11.6445163 10.4079091,11.3081578 C10.5748698,11.116007 10.8456517,11.0590354 11.0733088,11.1681599 C11.3156224,11.2486908 11.4658965,11.495937 11.4291375,11.7536056 C11.4039536,11.9345103 11.4039536,12.1181472 11.4291375,12.2990519 C11.4487078,12.4457733 11.5050958,12.5848234 11.5928187,12.7026821 C11.7814079,12.9354059 11.7796288,13.4172168 11.6746593,13.6972125 C11.6639845,13.7226667 11.6017144,14.025857 11.5928187,14.0549474 C9.73941519,15.2471401 7.32315339,15.3851855 5.28753386,14.5597982 L5.50281024,14.2517496 C5.51786398,14.2261109 5.53783461,14.2038471 5.56152198,14.186296 C6.01520359,13.7463027 6.46710606,13.3063094 6.92434596,12.8699523 C6.96882455,12.8263166 7.0524443,12.8299529 7.10226032,12.7917717 C7.30508269,12.642683 7.51857992,12.5117759 7.51502163,12.1990534 C7.52672411,12.0649361 7.57895188,11.9378576 7.66446969,11.8354225 C7.81213861,11.6390619 7.91888723,11.0481617 7.77833488,10.8590737 C7.67158627,10.7172576 7.4972302,10.5336241 7.35667785,10.5354422 C7.12339234,10.5311081 6.9033933,10.4236706 6.75354818,10.2409012 C6.51870123,10.0154501 6.28207513,9.79181711 6.04189074,9.57545675 C5.97674651,9.50539839 5.88879927,9.46207705 5.79458979,9.45364041 C5.59649284,9.48352392 5.39922431,9.39439816 5.28753386,9.22455297 C4.9583923,8.80092302 4.54563099,8.67910669 4.02790021,8.75183286 C3.51016942,8.82455903 3.27532247,9.00819261 3.31624277,9.56636598 C3.35294836,9.80390433 3.26679992,10.0439438 3.08851239,10.2009018 C3.02942703,10.263264 2.99033016,10.3425381 2.97642635,10.4281711 C2.85366544,11.0572525 3.4069791,11.4245197 3.55286887,11.9499663 C3.56176459,11.982693 3.60802232,12.0045109 3.63648862,12.0317832 C3.75213295,12.1390543 3.85888157,12.2572343 3.99231733,12.3535965 C4.1334362,12.4615004 4.21333185,12.6336405 4.20581456,12.8135895 C4.20581456,13.113585 4.19336056,13.6765701 4.20581456,13.9765655 C2.86171694,13.084378 1.59745954,11.5307138 1.1253909,9.9654782 C1.20048488,10.0431249 1.60076843,10.0391683 1.70611783,10.0572676 C1.85912418,10.0572676 1.95697707,10.0281772 1.93740649,9.83363466 C1.91783591,9.63909215 1.92851078,9.43182256 1.90360277,9.23364374 C1.86718784,9.05195714 1.93645279,8.86508818 2.08151712,8.75365101 C2.25943148,8.61910759 2.42311269,8.48092787 2.60458534,8.36092968 C2.71695285,8.27147168 2.84775622,8.20929891 2.98710121,8.17911425 C3.39274595,8.13729671 3.57243945,7.96275389 3.60624318,7.54639656 C3.62060666,7.45943398 3.65608606,7.37754239 3.7094335,7.30821835 C3.91403502,7.02458628 4.13464882,6.75186314 4.33569205,6.46641291 C4.69390666,5.96531538 5.13746248,5.53420523 5.64514172,5.19370491 C6.10416077,4.88643683 6.35679916,4.43189826 6.73753589,4.10281233 C6.52955199,4.06097129 6.32872818,3.98806968 6.14152279,3.88645197 C5.99790578,3.74948083 5.80309267,3.68311926 5.60777971,3.70463654 C5.44231936,3.72645439 5.26796328,3.70463654 5.10606122,3.73736332 C4.96486011,3.78293475 4.82886346,3.84389028 4.70041648,3.91917875 C4.56403576,4.00133133 4.41976174,4.0689576 4.26986373,4.12099387 C4.10974081,4.15917511 3.93182645,4.12099387 3.76814524,4.15372065 C3.4478994,4.2155379 3.2682059,4.03554062 3.08673325,3.79008979 L4.19336056,2.56101749 C4.54918928,2.17011432 4.85876026,2.15193278 5.23415956,2.51556363 C5.31990508,2.61607782 5.39559884,2.72510357 5.46011079,2.84101325 L5.53483482,2.7355603 L5.84440581,2.55192672 C5.84999737,2.32025331 5.73396127,2.10320266 5.54017225,1.98284443 C5.4801083,1.94634381 5.413615,1.922252 5.34446646,1.91193641 C5.18738084,1.88855915 5.03831398,1.82612661 4.91035542,1.73012098 C4.86492204,1.69372832 4.81605026,1.66205691 4.76446565,1.63557696 C5.13489625,1.43529856 5.52261239,1.27036011 5.92268812,1.14285714 C6.20521562,1.14626539 6.46935769,1.28663098 6.63434556,1.52103324 C6.65925357,1.55557817 6.73931503,1.55557817 6.79624762,1.56103263 C7.3299907,1.59921387 7.56483765,1.84648285 7.59330395,2.3937473 C7.61408136,2.61854489 7.62298999,2.84432335 7.6199911,3.07010069 C7.60042052,3.42464078 7.85127977,3.58100205 8.08256844,3.71372731 C8.15697446,3.77455886 8.2569639,3.79151638 8.34660912,3.75850681 C8.43625434,3.72549723 8.50267942,3.64726179 8.5220169,3.55191158 C8.58428693,3.37009615 8.78177187,3.08828224 8.91520763,3.09010039 C9.41336784,3.09010039 9.77453399,2.85919479 10.1268044,2.56101749 C10.1428167,2.54829041 10.1783996,2.56101749 10.1944119,2.54829041 C10.4132465,2.35011159 10.6783389,2.19556848 10.6658849,1.82102869 C10.6733622,1.68689319 10.7240286,1.55904799 10.8099956,1.45739784 C12.0080161,2.00550291 13.4698792,2.84221957 14.1858946,3.96645076 C14.2784101,4.1119031 14.1058331,4.35553578 14.1858946,4.50462443 C14.0951583,4.52462413 13.8274231,4.50280628 13.8114108,4.50462443 Z" id="Path" fill="#B0B3BF"></path>
        </g>
    </g>
</svg>

<svg xmlns="http://www.w3.org/2000/svg" width="16" height="16" viewBox="0 0 16 16">
    <g fill="none" fill-rule="evenodd">
        <circle cx="8" cy="8" r="7.5" stroke="#B0B3BF"/>
        <path fill="#AAACBA" d="M13.811 4.505c-.503.049-.754-.446-1.206-.446-.032 0-.064-.06-.096-.093-.12-.123-.233-.258-.356-.363-.26-.233-.603-.27-.918-.347a.237.237 0 0 0-.169.06c-.338.261-.356.68-.457 1.049-.016.056.046.156.1.209.099.083.204.159.314.225-.069.051-.128.1-.177.144a1.654 1.654 0 0 0-.584 1.043.808.808 0 0 1-.109.33.303.303 0 0 0 .033.374l.017.056a.288.288 0 0 0 .19.192.28.28 0 0 0 .26-.052.81.81 0 0 1 .588-.321.774.774 0 0 1 .597.23c.23.226.395.571.803.517.026 0 .06.034.087.06l.67.63a1.452 1.452 0 0 1-.355.15c-.207.016-.415 0-.621 0a3.711 3.711 0 0 0-.452.083l-.055.086c-.157-.182-.308-.364-.47-.531-.233-.245-.44-.253-.662 0a.528.528 0 0 1-.452.182c-.149 0-.355-.038-.439.045-.262.288-.712.448-.685.957 0 .061-.077.143-.137.181a.535.535 0 0 0-.201.513c.014.147.014.295 0 .442a.592.592 0 0 0 .205.545c.066.091.112.196.133.308.023.067.01.15.044.207.23.387.858.475 1.157.138a.56.56 0 0 1 .665-.14c.243.08.393.328.356.586-.025.18-.025.364 0 .545.02.147.076.286.164.404.188.232.187.714.082.994-.011.026-.073.329-.082.358-1.854 1.192-4.27 1.33-6.305.505l.215-.308a.22.22 0 0 1 .059-.066c.453-.44.905-.88 1.362-1.316.045-.044.128-.04.178-.078.203-.15.417-.28.413-.593a.657.657 0 0 1 .15-.364c.147-.196.254-.787.113-.976-.106-.142-.28-.325-.421-.324a.8.8 0 0 1-.603-.294c-.235-.226-.472-.45-.712-.666a.385.385 0 0 0-.247-.121.515.515 0 0 1-.507-.23c-.33-.423-.742-.545-1.26-.472-.518.073-.753.256-.712.814a.703.703 0 0 1-.227.635.43.43 0 0 0-.113.227c-.122.63.431.997.577 1.522.009.033.055.055.083.082.116.107.223.225.356.322a.55.55 0 0 1 .214.46c0 .3-.013.863 0 1.163-1.344-.893-2.609-2.446-3.08-4.012.074.078.475.074.58.092.153 0 .251-.029.231-.223-.02-.195-.008-.402-.033-.6a.485.485 0 0 1 .178-.48c.177-.135.341-.273.523-.393a.93.93 0 0 1 .382-.182c.406-.042.585-.216.62-.633a.533.533 0 0 1 .102-.238c.205-.283.426-.556.627-.842a5.109 5.109 0 0 1 1.31-1.272c.458-.308.71-.762 1.092-1.091a2.13 2.13 0 0 1-.596-.217.667.667 0 0 0-.534-.181c-.166.021-.34 0-.502.032a2.043 2.043 0 0 0-.406.182 2.29 2.29 0 0 1-.43.202c-.16.038-.338 0-.502.033-.32.062-.5-.118-.681-.364l1.106-1.229c.356-.39.666-.41 1.041-.045a2 2 0 0 1 .226.325l.075-.105.31-.184a.65.65 0 0 0-.305-.57.526.526 0 0 0-.196-.07.958.958 0 0 1-.434-.182.866.866 0 0 0-.146-.094c.37-.2.759-.366 1.159-.493a.884.884 0 0 1 .711.378c.025.035.105.035.162.04.534.038.769.285.797.833.021.225.03.45.027.676-.02.355.231.511.463.644a.27.27 0 0 0 .264.045.278.278 0 0 0 .175-.207c.062-.182.26-.464.393-.462.498 0 .86-.23 1.212-.529.016-.013.051 0 .067-.013.22-.198.484-.352.472-.727a.616.616 0 0 1 .144-.364c1.198.549 2.66 1.385 3.376 2.51.092.145-.08.389 0 .538-.09.02-.359-.002-.375 0z"/>
    </g>
</svg>
